dist/img/education-hat.svg

<svg width="126" height="90" viewBox="0 0 126 90" fill="none" xmlns="http://www.w3.org/2000/svg">
<path d="M115.422 48.5623L103.39 52.9416C102.96 46.8399 102.227 40.8704 101.206 35.1539L122.993 27.9487C124.82 27.3445 126 25.7112 126 23.7875C126 21.8638 124.82 20.2302 122.993 19.6263L65.1728 0.505447C63.7715 0.0418042 62.228 0.0418042 60.8272 0.505447L3.00703 19.6263C1.18027 20.2304 0 21.8638 0 23.7877C0 25.7117 1.18027 27.345 3.00703 27.9489L24.7908 35.1529C24.2413 38.2323 23.7683 41.4362 23.3832 44.6959C23.2638 45.7084 23.9873 46.6258 24.9995 46.7454C25.0731 46.754 25.1462 46.7582 25.2186 46.7582C26.1412 46.7582 26.9383 46.0677 27.049 45.1288C27.4039 42.125 27.8353 39.1716 28.3329 36.3243L34.202 38.2652V42.8561C31.2491 43.6675 29.0729 46.3741 29.0729 49.5809C29.0729 51.5145 29.8641 53.2662 31.1391 54.5306C30.2044 57.9481 29.4834 61.9533 28.9789 66.5177C27.7199 65.7978 26.7815 65.1774 26.1542 64.7332C25.9691 64.6023 25.8599 64.386 25.8616 64.1544C25.8884 60.5093 26.0334 56.807 26.2928 53.1503C26.3649 52.1334 25.599 51.2507 24.5822 51.1786C23.5678 51.1077 22.6825 51.8723 22.6104 52.8892C22.3459 56.6234 22.1977 60.4044 22.1702 64.1268C22.1594 65.5645 22.8516 66.9173 24.0211 67.7457C24.9459 68.4005 26.4704 69.3955 28.6026 70.5216C28.2896 74.5182 28.1225 78.8851 28.1028 83.6079C28.0969 85.0166 29.0463 86.2463 30.4124 86.5985C31.6214 86.9103 33.5809 87.2816 36.0477 87.2816C38.5143 87.2816 40.4737 86.91 41.683 86.5982C43.0489 86.2461 43.9983 85.0163 43.9924 83.6079C43.9818 81.0326 43.9264 78.565 43.8282 76.2035C46.3234 76.8317 48.9153 77.3623 51.5714 77.7868C51.6415 79.2371 51.9555 80.7685 52.5014 82.2682C53.3679 84.6484 54.732 86.7159 56.3434 88.0898C57.6927 89.2403 59.1658 89.8413 60.5597 89.8413C61.0445 89.8413 61.5188 89.7645 61.9758 89.6168C62.0287 89.6028 62.0813 89.5863 62.1337 89.5671L90.6615 79.1839C90.6618 79.1839 90.6618 79.1839 90.662 79.1837L90.6674 79.1817C91.7879 78.7751 92.761 78.7783 93.6422 79.1913C95.6533 80.1336 96.8555 82.9728 97.2793 84.1503C97.5578 84.9236 98.1212 85.5413 98.8658 85.89C99.2808 86.0844 99.7237 86.1821 100.169 86.1821C100.524 86.1821 100.88 86.1198 101.224 85.9946L109.694 82.9115C110.531 82.6071 111.195 81.9562 111.516 81.1253C111.834 80.3007 111.782 79.3803 111.372 78.6002C110.184 76.3413 108.329 74.6548 105.933 73.6251L108.881 72.5519C109.839 72.2032 110.333 71.144 109.984 70.1862C109.636 69.2281 108.576 68.734 107.618 69.0829L102.568 70.9213C102.834 68.9683 102.581 66.6754 101.734 64.3483C100.917 62.1044 99.6573 60.1394 98.1657 58.7703L116.683 52.0305C117.782 51.6299 120.235 53.4168 121.585 57.1232C122.227 58.8875 122.455 60.7297 122.212 62.1775C122.033 63.2407 121.619 63.9873 121.103 64.1748L115.327 66.277C114.37 66.6257 113.876 67.6849 114.224 68.6427C114.573 69.6002 115.631 70.0944 116.59 69.7459L122.366 67.6438C124.173 66.986 125.444 65.217 125.852 62.7901C126.204 60.7017 125.92 58.2407 125.054 55.8605C123.107 50.5114 118.876 47.3053 115.422 48.5623ZM36.0477 46.2975C37.858 46.2975 39.3309 47.7704 39.3309 49.5807C39.3309 51.3912 37.8582 52.8641 36.0477 52.8641C34.2372 52.8641 32.7643 51.3912 32.7643 49.5807C32.7643 47.7704 34.2372 46.2975 36.0477 46.2975ZM36.0477 83.5905C34.2101 83.5905 32.7148 83.3404 31.7969 83.1352C31.883 69.7454 33.2139 61.3504 34.4725 56.3739C34.9792 56.4913 35.5061 56.5555 36.0477 56.5555C36.5896 56.5555 37.1162 56.4913 37.623 56.3739C38.8798 61.3442 40.2119 69.7405 40.2985 83.1352C39.3801 83.3407 37.8848 83.5905 36.0477 83.5905ZM40.9558 54.5306C42.2308 53.2662 43.022 51.5142 43.022 49.5809C43.022 46.3741 40.8458 43.6675 37.8932 42.8561V39.4861L60.8267 47.0703C61.5276 47.3021 62.2634 47.418 62.9998 47.418C63.7356 47.418 64.4719 47.3021 65.1723 47.0703L80.1235 42.126C81.0914 41.806 81.6163 40.7621 81.2966 39.794C80.9765 38.8263 79.9328 38.3004 78.9647 38.6211L64.0132 43.5654C63.3595 43.7817 62.6395 43.7817 61.9858 43.5654L40.2365 36.3725L57.373 25.0325C57.4496 25.0719 57.5251 25.1117 57.6046 25.1489C58.9751 25.7897 60.7824 26.1148 62.9759 26.1148C65.1693 26.1148 66.9764 25.79 68.3471 25.1489C70.2593 24.2548 71.3121 22.7271 71.3121 20.8469C71.3121 17.3238 67.6505 14.5641 62.9759 14.5641C58.3013 14.5641 54.6397 17.3238 54.6397 20.8469C54.6397 21.3475 54.7167 21.8224 54.8624 22.2676L35.7763 34.8977L4.16589 24.4443C3.75319 24.3077 3.69142 23.9743 3.69142 23.7877C3.69142 23.6012 3.75319 23.2677 4.16589 23.1311L61.9863 4.01008C62.64 3.79377 63.36 3.79377 64.0137 4.01008L121.834 23.1311C122.247 23.2677 122.309 23.6012 122.309 23.7877C122.309 23.9743 122.247 24.3077 121.834 24.4443L86.7408 36.0494C85.7729 36.3693 85.2479 37.4135 85.5676 38.3814C85.8878 39.349 86.932 39.8747 87.8996 39.5543L97.6676 36.324C98.6638 42.03 99.3893 48.1824 99.7816 54.2552C99.7816 54.2552 83.7185 60.1017 83.717 60.1022C83.7165 60.1025 83.7162 60.1027 83.7158 60.1027L55.1887 70.4854C55.186 70.4864 55.1835 70.4876 55.1808 70.4886C53.6969 71.032 52.5769 72.3262 51.9993 74.1178C49.1084 73.6507 46.3005 73.0532 43.6223 72.3373C43.1603 65.2938 42.2692 59.3322 40.9558 54.5306ZM58.3311 20.8469C58.3311 19.6236 60.3173 18.2555 62.9759 18.2555C65.6344 18.2555 67.6207 19.6238 67.6207 20.8469C67.6207 21.93 65.2129 22.4234 62.9759 22.4234C60.7389 22.4234 58.3311 21.93 58.3311 20.8469ZM87.1124 64.3884C88.2296 65.3411 89.2386 66.8993 89.8807 68.6636C90.5227 70.4279 90.7516 72.2701 90.508 73.7179C90.3291 74.7808 89.9149 75.5274 89.3998 75.715L65.6736 84.3507C65.9364 82.3433 65.6381 80.028 64.8213 77.7844C64.0046 75.5407 62.745 73.5754 61.2537 72.2064L84.9799 63.5707C85.4938 63.3834 86.2919 63.689 87.1124 64.3884ZM55.9703 81.006C55.3282 79.2417 55.0994 77.3995 55.343 75.9517C55.5217 74.8888 55.9358 74.1427 56.4507 73.9546C56.4509 73.9546 56.4512 73.9546 56.4512 73.9544L56.4524 73.9539C56.5521 73.918 56.6621 73.9 56.7807 73.9C57.2763 73.9 57.9228 74.2079 58.5838 74.7717C59.7011 75.7243 60.7101 77.2826 61.3521 79.0468C61.9942 80.8111 62.2231 82.6533 61.9794 84.1011C61.8005 85.1642 61.3864 85.9109 60.871 86.0984C60.3567 86.2859 59.5589 85.9803 58.7384 85.2809C57.6214 84.3285 56.6124 82.7702 55.9703 81.006ZM107.738 79.696L100.532 82.3187C99.8903 80.7053 98.7317 78.4609 96.8764 76.9223L98.8452 76.2057C99.8497 76.106 105.158 75.7836 107.738 79.696ZM95.4973 61.3366C96.6146 62.2893 97.6238 63.8475 98.2659 65.6118C99.6142 69.317 98.8826 72.2617 97.786 72.6629L94.2016 73.9674C94.4644 71.96 94.1662 69.6448 93.3494 67.4011C92.5328 65.1575 91.2736 63.1919 89.7822 61.8229L93.3646 60.5188C93.8805 60.3318 94.6771 60.6372 95.4973 61.3366Z" fill="black"/>
</svg>

<svg width="126" height="90" fill="none" xmlns="http://www.w3.org/2000/svg"><path d="M115.422 48.562l-12.032 4.38a169.074 169.074 0 00-2.184-17.788l21.787-7.205c1.827-.605 3.007-2.238 3.007-4.162 0-1.923-1.18-3.557-3.007-4.16L65.173.504a6.962 6.962 0 00-4.346 0L3.007 19.626C1.18 20.23 0 21.864 0 23.788s1.18 3.557 3.007 4.16l21.784 7.205c-.55 3.08-1.023 6.283-1.408 9.543a1.846 1.846 0 103.666.433c.355-3.004.786-5.957 1.284-8.805l5.869 1.941v4.591c-2.953.811-5.13 3.518-5.13 6.725 0 1.933.792 3.685 2.067 4.95-.935 3.417-1.656 7.422-2.16 11.987a34.862 34.862 0 01-2.825-1.785.7.7 0 01-.292-.579c.026-3.645.171-7.347.43-11.004a1.846 1.846 0 10-3.682-.26 178.415 178.415 0 00-.44 11.237 4.395 4.395 0 001.851 3.619c.925.654 2.45 1.65 4.582 2.776-.313 3.996-.48 8.363-.5 13.086a3.073 3.073 0 002.31 2.99c1.208.312 3.168.684 5.635.684 2.466 0 4.426-.372 5.635-.684a3.073 3.073 0 002.31-2.99 197.98 197.98 0 00-.165-7.404 89.855 89.855 0 007.743 1.583c.07 1.45.385 2.981.93 4.481.867 2.38 2.231 4.448 3.842 5.822 1.35 1.15 2.823 1.751 4.217 1.751.484 0 .959-.076 1.416-.224.053-.014.105-.03.158-.05l28.528-10.383.005-.002c1.12-.407 2.094-.404 2.975.01 2.011.942 3.214 3.78 3.637 4.958a3.049 3.049 0 001.587 1.74 3.065 3.065 0 002.358.105l8.47-3.084a3.082 3.082 0 001.822-1.786 3.06 3.06 0 00-.144-2.525c-1.188-2.259-3.043-3.945-5.439-4.975l2.948-1.073a1.845 1.845 0 10-1.263-3.47l-5.05 1.84c.266-1.954.013-4.247-.834-6.574-.817-2.244-2.077-4.209-3.568-5.578l18.517-6.74c1.099-.4 3.552 1.387 4.902 5.093.642 1.765.87 3.607.627 5.055-.179 1.063-.593 1.81-1.109 1.997l-5.776 2.102a1.847 1.847 0 001.263 3.469l5.776-2.102c1.807-.658 3.078-2.427 3.486-4.854.352-2.088.068-4.55-.798-6.93-1.947-5.349-6.178-8.555-9.632-7.298zm-79.374-2.264a3.287 3.287 0 013.283 3.283 3.287 3.287 0 01-3.283 3.283 3.287 3.287 0 01-3.284-3.283 3.287 3.287 0 013.284-3.284zm0 37.293c-1.838 0-3.333-.25-4.251-.456.086-13.39 1.417-21.785 2.675-26.761a6.97 6.97 0 003.151 0c1.257 4.97 2.589 13.366 2.675 26.761-.918.206-2.413.456-4.25.456zm4.908-29.06a6.953 6.953 0 002.066-4.95c0-3.207-2.176-5.914-5.129-6.725v-3.37l22.934 7.584c.7.232 1.436.348 2.173.348.736 0 1.472-.116 2.172-.348l14.952-4.944a1.846 1.846 0 00-1.16-3.505l-14.95 4.944a3.248 3.248 0 01-2.028 0l-21.75-7.192 17.137-11.34c.077.039.152.079.232.116 1.37.64 3.177.966 5.37.966 2.194 0 4.001-.325 5.372-.966 1.912-.894 2.965-2.422 2.965-4.302 0-3.523-3.662-6.283-8.336-6.283-4.675 0-8.336 2.76-8.336 6.283 0 .5.077.975.222 1.42l-19.086 12.63-31.61-10.453c-.413-.136-.475-.47-.475-.656 0-.187.062-.52.475-.657l57.82-19.12a3.248 3.248 0 012.028 0l57.82 19.12c.413.137.475.47.475.657 0 .186-.062.52-.475.656L86.741 36.05a1.846 1.846 0 001.159 3.505l9.768-3.23c.996 5.706 1.721 11.858 2.114 17.931l-16.065 5.847h-.001L55.189 70.486l-.008.004c-1.484.543-2.604 1.837-3.182 3.629a85.05 85.05 0 01-8.377-1.78c-.462-7.044-1.353-13.006-2.666-17.807zM58.33 20.847c0-1.223 1.986-2.591 4.645-2.591 2.658 0 4.645 1.368 4.645 2.59 0 1.084-2.408 1.577-4.645 1.577-2.237 0-4.645-.493-4.645-1.576zm28.781 43.541c1.118.953 2.127 2.511 2.769 4.276.642 1.764.87 3.606.627 5.054-.179 1.063-.593 1.81-1.108 1.997l-23.726 8.636c.262-2.008-.036-4.323-.853-6.567-.816-2.243-2.076-4.209-3.567-5.578l23.726-8.635c.514-.188 1.312.118 2.132.817zM55.97 81.006c-.642-1.764-.87-3.606-.627-5.054.179-1.063.593-1.81 1.108-1.997l.001-.001c.1-.036.21-.054.329-.054.495 0 1.142.308 1.803.872 1.117.952 2.126 2.51 2.768 4.275.642 1.764.871 3.606.627 5.054-.178 1.063-.593 1.81-1.108 1.997-.514.188-1.312-.118-2.133-.817-1.117-.953-2.126-2.51-2.768-4.275zm51.768-1.31l-7.206 2.623c-.642-1.614-1.8-3.858-3.656-5.397l1.97-.716c1.004-.1 6.312-.422 8.892 3.49zm-12.24-18.36c1.117.953 2.126 2.511 2.768 4.276 1.348 3.705.617 6.65-.48 7.05l-3.584 1.305c.262-2.007-.036-4.322-.853-6.566-.816-2.243-2.075-4.21-3.567-5.578l3.583-1.304c.516-.187 1.312.118 2.132.818z" fill="#000"/></svg>
